;FLAVOR:Marlin
;TIME:6666
;Filament used: 0m
;Layer height: 3
;MINX:2.14748e+06
;MINY:2.14748e+06
;MINZ:2.14748e+06
;MAXX:-2.14748e+06
;MAXY:-2.14748e+06
;MAXZ:-2.14748e+06
;TARGET_MACHINE.NAME:Unknown

;Generated with Cura_SteamEngine 5.14.0-alpha.0
M104 S215
M105
M109 S215
G28 ;Home
G1 Z15.0 F6000 ;Move the platform down 15mm
;Prime the extruder
G92 E0
G1 F200 E3
G92 E0
M82 ;absolute extrusion mode
G92 E0
G92 E0
G1 F1500 E-6.5
;LAYER_COUNT:68
;LAYER:0
;note -- min layer time used
M106 S255
M104 S210
;MESH:/mnt/d/hax2026hoo/3FIL/splicer/tests/test.stl
G0 F3600 X221.748 Y92.887 Z0.3
;TYPE:WALL-INNER
G1 F1500 E0
G1 F995.4 X222.944 Y92.892 E0.01895
G1 F983.7 X223.128 Y92.882 E0.02191
G0 F3600 X221.743 Y92.946
G0 X221.723 Y93.25
;TYPE:WALL-OUTER
G1 F838.6 X222.957 Y93.264 E0.04512
G1 X223.575 Y93.215 E0.05678
G1 X223.42 Y92.492 E0.07069
G1 X223.055 Y92.52 E0.07758
G1 X221.739 Y92.523 E0.10233
G1 F710.7 X221.341 Y92.606 E0.11136
G1 F651.4 X220.042 Y92.614 E0.14282
G1 F691.7 X218.459 Y92.606 E0.17892
G1 X217.881 Y92.59 E0.19211
G1 X218.441 Y92.778 E0.20559
G1 X220.072 Y93.095 E0.24348
G1 F651.4 X221.329 Y93.15 E0.27395
G1 F710.7 X221.723 Y93.25 E0.28298
G0 F3600 X221.923 Y93.252
G1 F1500 E-6.21702
;MESH:NONMESH
G0 F600 Z3.3
G0 F3600 X221.925 Y92.949
G0 X219.333 Y92.78
G0 X219.337 Y91.704
G0 X196.056 Y88.413
;TIME_ELAPSED:8.167253
;LAYER:1
;TYPE:WALL-INNER
;MESH:/mnt/d/hax2026hoo/3FIL/splicer/tests/test.stl
G1 F1500 E0.28298
G1 F2700 X195.847 Y88.484 E0.3245
G1 X139.463 Y88.138 E10.93084
G1 X138.061 Y89.113 E11.25207
G1 X138.05 Y89.949 E11.40934
G1 X138.211 Y90.247 E11.47305
G1 X138.487 Y90.447 E11.53717
G1 X138.663 Y90.523 E11.57323
G1 X139.12 Y90.612 E11.66081
G1 X213.66 Y91.08 E25.68247
G1 X213.821 Y91.124 E25.71387
G1 X214.026 Y91.246 E25.75874
G1 X215.364 Y91.921 E26.04064
G1 X216.855 Y92.423 E26.33657
G1 X218.432 Y92.736 E26.639
G1 X220.124 Y92.856 E26.95808
G1 X226.303 Y92.895 E28.12041
G1 X226.793 Y92.812 E28.21389
G1 X227.05 Y92.702 E28.26648
G1 X227.16 Y92.598 E28.29495
G1 X227.216 Y92.479 E28.31969
G1 X227.216 Y85.121 E29.70377
G1 X218.085 Y85.062 E31.4214
G1 X217.848 Y84.971 E31.46915
G1 X217.634 Y84.727 E31.5302
G1 X217.575 Y84.526 E31.56961
G1 X217.835 Y65.297 E35.18702
G1 X217.896 Y65.113 E35.22348
G1 X218.075 Y64.906 E35.27496
G1 X218.329 Y64.791 E35.32741
G1 X227.207 Y64.844 E36.99744
G1 X227.196 Y57.438 E38.39055
G1 X227.16 Y57.302 E38.41701
G1 X226.922 Y57.146 E38.47054
G1 X226.504 Y57.011 E38.55317
G1 X226.14 Y56.96 E38.62231
G1 X220.597 Y56.925 E39.665
G1 X219.08 Y56.998 E39.95069
G1 X217.628 Y57.235 E40.22743
G1 X216.257 Y57.627 E40.49566
G1 X214.968 Y58.172 E40.75891
G1 X214.264 Y58.564 E40.91048
G1 X214.064 Y58.621 E40.9496
G1 X139.479 Y58.165 E54.97971
G1 X139.208 Y58.216 E55.03158
G1 X138.804 Y58.376 E55.11332
G1 X138.534 Y58.597 E55.17895
G1 X138.435 Y58.792 E55.22009
G1 X138.424 Y59.663 E55.38394
G1 X139.795 Y60.648 E55.7015
G1 X195.792 Y60.992 E66.23504
G1 X196.078 Y61.066 E66.29061
G1 X196.276 Y61.241 E66.34032
G1 X196.389 Y61.592 E66.40968
G1 X196.389 Y61.947 E66.47646
G1 X208.608 Y62.024 E68.77497
G1 X208.802 Y62.057 E68.81198
G1 X209.085 Y62.264 E68.87794
G1 X209.204 Y62.547 E68.93569
G1 X209.189 Y87.088 E73.55199
G1 X209.068 Y87.373 E73.61023
G1 X208.947 Y87.494 E73.64242
G1 X208.781 Y87.581 E73.67767
G1 X208.584 Y87.612 E73.71518
G1 X196.372 Y87.536 E76.01237
G1 X196.372 Y87.884 E76.07783
G1 X196.255 Y88.241 E76.1485
G1 X196.056 Y88.413 E76.19798
G0 F5400 X195.933 Y88.003
;TYPE:WALL-OUTER
G1 F1800 X195.806 Y88.082 E76.22611
G1 X139.339 Y87.737 E86.84807
G1 X137.663 Y88.902 E87.23202
G1 X137.649 Y89.996 E87.43782
G1 X137.698 Y90.19 E87.47546
G1 X137.916 Y90.527 E87.55096
G1 X138.288 Y90.797 E87.63742
G1 X138.544 Y90.907 E87.68983
G1 X139.08 Y91.012 E87.79257
G1 X213.636 Y91.482 E101.81725
G1 X213.828 Y91.594 E101.85906
G1 X215.21 Y92.291 E102.15022
G1 X216.752 Y92.81 E102.45626
G1 X218.379 Y93.133 E102.76828
G1 X220.108 Y93.256 E103.09434
G1 X226.335 Y93.295 E104.2657
G1 X226.907 Y93.198 E104.37483
G1 X227.272 Y93.042 E104.4495
G1 X227.49 Y92.836 E104.50592
G1 X227.616 Y92.567 E104.56179
G1 X227.616 Y84.723 E106.03729
G1 X218.128 Y84.668 E107.82207
G1 X218.042 Y84.618 E107.84078
G1 X217.977 Y84.497 E107.86662
G1 X218.231 Y65.357 E111.46727
G1 X218.277 Y65.26 E111.48747
G1 X218.385 Y65.196 E111.51108
G1 X227.607 Y65.246 E113.24582
G1 X227.596 Y57.386 E114.72433
G1 X227.523 Y57.111 E114.77785
G1 X227.458 Y57.019 E114.79904
G1 X227.096 Y56.782 E114.88043
G1 X226.594 Y56.62 E114.97965
G1 X226.169 Y56.56 E115.06039
G1 X220.589 Y56.525 E116.11004
G1 X219.038 Y56.6 E116.40213
G1 X217.54 Y56.844 E116.68763
G1 X216.123 Y57.249 E116.96485
G1 X214.792 Y57.812 E117.23669
G1 X214.05 Y58.223 E117.39625
G1 X139.443 Y57.765 E131.43051
G1 X139.096 Y57.83 E131.49691
G1 X138.599 Y58.027 E131.59748
G1 X138.234 Y58.325 E131.68611
G1 X138.036 Y58.712 E131.76788
G1 X138.022 Y59.866 E131.98497
G1 X139.665 Y61.048 E132.3657
G1 X195.79 Y61.392 E142.92332
G1 X195.951 Y61.475 E142.9574
G1 X195.989 Y61.592 E142.98054
G1 X195.989 Y62.345 E143.12218
G1 X208.655 Y62.424 E145.50477
G1 X208.765 Y62.504 E145.53036
G1 X208.801 Y62.588 E145.54755
G1 X208.785 Y87.049 E150.1488
G1 X208.708 Y87.173 E150.17625
G1 X208.622 Y87.21 E150.19386
G1 X195.972 Y87.134 E152.57344
G1 X195.972 Y87.884 E152.71452
G1 X195.933 Y88.003 E152.73808
G0 F5400 X195.806 Y88.082
G0 X195.757 Y88.082
G0 X196.272 Y88.723
;TYPE:SKIN
G1 F1800 X196.572 Y88.453 E152.814
G1 X196.746 Y87.918 E152.91982
G1 X208.61 Y87.99 E155.15155
G1 X208.87 Y87.946 E155.20115
G1 X209.147 Y87.815 E155.25879
G1 X209.352 Y87.62 E155.31201
G1 X209.565 Y87.146 E155.40976
G1 X209.581 Y62.492 E160.04732
G1 X209.37 Y62.01 E160.14629
G1 X209.165 Y61.818 E160.19913
G1 X208.898 Y61.69 E160.25482
G1 X208.638 Y61.646 E160.30443
G1 X196.764 Y61.565 E162.53804
G1 X196.598 Y61.028 E162.64377
G1 X196.296 Y60.757 E162.7201
G1 X195.842 Y60.618 E162.80941
G1 X139.918 Y60.268 E173.32923
G1 X138.805 Y59.466 E173.58729
G1 X138.812 Y58.873 E173.69884
G1 X138.999 Y58.707 E173.74588
G1 X139.511 Y58.545 E173.84689
G1 X214.108 Y58.999 E187.87926
G1 X214.361 Y58.934 E187.9284
G1 X215.112 Y58.521 E188.08962
G1 X216.383 Y57.985 E188.34909
G1 X217.708 Y57.604 E188.60843
G1 X219.113 Y57.376 E188.87618
G1 X220.605 Y57.305 E189.15715
G1 X226.105 Y57.34 E190.19175
G1 X226.419 Y57.384 E190.25139
G1 X226.816 Y57.53 E190.33096
G1 X226.823 Y64.462 E191.63491
G1 X218.254 Y64.413 E193.24681
G1 X217.871 Y64.584 E193.32571
G1 X217.694 Y64.738 E193.36984
G1 X217.493 Y65.098 E193.4474
G1 X217.45 Y65.352 E193.49586
G1 X217.194 Y84.574 E197.11194
G1 X217.333 Y84.967 E197.19036
G1 X217.521 Y85.196 E197.24609
G1 X217.854 Y85.394 E197.31897
G1 X218.095 Y85.444 E197.36527
G1 X226.836 Y85.499 E199.00953
G1 X226.836 Y92.369 E200.30181
G1 X226.683 Y92.442 E200.3337
G1 X226.275 Y92.512 E200.41157
G1 X220.14 Y92.476 E201.56562
G1 X218.479 Y92.357 E201.87886
G1 X216.956 Y92.054 E202.17096
G1 X215.502 Y91.567 E202.4594
G1 X214.212 Y90.912 E202.73154
G1 X213.965 Y90.771 E202.78504
G1 X213.71 Y90.701 E202.83479
G1 X139.157 Y90.232 E216.8589
G1 X138.791 Y90.158 E216.92914
G1 X138.49 Y89.974 E216.9955
G1 X138.429 Y89.873 E217.01769
G1 X138.439 Y89.314 E217.12286
G1 X139.579 Y88.517 E217.38451
G1 X195.902 Y88.862 E227.97938
G1 X196.272 Y88.723 E228.05373
G0 F5400 X196.272 Y88.797
G0 X226.636 Y91.845
G1 F1800 X226.169 Y92.312 E228.17796
G0 F5400 X225.607 Y92.309
G1 F1800 X226.636 Y91.28 E228.4517
G0 F5400 X226.636 Y90.714
G1 F1800 X225.045 Y92.305 E228.87494
G0 F5400 X224.482 Y92.302
G1 F1800 X226.636 Y90.148 E229.44795
G0 F5400 X226.636 Y89.583
G1 F1800 X223.92 Y92.299 E230.17046
G0 F5400 X223.357 Y92.295
G1 F1800 X226.636 Y89.017 E231.04261
G0 F5400 X226.636 Y88.451
G1 F1800 X222.794 Y92.292 E232.06453
G0 F5400 X222.232 Y92.289
G1 F1800 X226.636 Y87.886 E233.23596
G0 F5400 X226.636 Y87.32
G1 F1800 X221.67 Y92.285 E234.55689
G0 F5400 X221.107 Y92.282
G1 F1800 X226.636 Y86.754 E236.02759
G0 F5400 X226.636 Y86.189
G1 F1800 X220.545 Y92.279 E237.64779
G0 F5400 X219.993 Y92.265
G1 F1800 X226.561 Y85.697 E239.39502
G0 F5400 X225.999 Y85.694
G1 F1800 X219.465 Y92.227 E241.13307
G0 F5400 X218.938 Y92.189
G1 F1800 X225.437 Y85.69 E242.86194
G0 F5400 X224.875 Y85.686
G1 F1800 X218.42 Y92.141 E244.57911
G0 F5400 X217.948 Y92.048
G1 F1800 X224.313 Y85.683 E246.27234
G0 F5400 X223.751 Y85.679
G1 F1800 X217.476 Y91.954 E247.94162
G0 F5400 X217.005 Y91.86
G1 F1800 X223.189 Y85.675 E249.58683
G0 F5400 X222.627 Y85.672
G1 F1800 X216.581 Y91.717 E251.19507
G0 F5400 X216.157 Y91.576
G1 F1800 X222.065 Y85.668 E252.76672
G0 F5400 X221.503 Y85.665
G1 F1800 X215.733 Y91.434 E254.30153
G0 F5400 X215.341 Y91.261
G1 F1800 X220.94 Y85.661 E255.79112
G0 F5400 X220.378 Y85.658
G1 F1800 X214.965 Y91.07 E257.23096
G0 F5400 X214.59 Y90.88
G1 F1800 X219.816 Y85.654 E258.62119
G0 F5400 X219.254 Y85.65
G1 F1800 X214.218 Y90.686 E259.96087
G0 F5400 X213.814 Y90.525
G1 F1800 X218.692 Y85.647 E261.25852
G0 F5400 X218.13 Y85.643
G1 F1800 X213.273 Y90.5 E262.55059
G0 F5400 X212.711 Y90.496
G1 F1800 X217.686 Y85.521 E263.87405
G0 F5400 X217.346 Y85.296
G1 F1800 X212.149 Y90.493 E265.25656
G0 F5400 X211.587 Y90.489
G1 F1800 X217.124 Y84.953 E266.72939
G0 F5400 X216.998 Y84.513
G1 F1800 X211.025 Y90.486 E268.31833
G0 F5400 X210.463 Y90.482
G1 F1800 X217.005 Y83.939 E270.05878
G0 F5400 X217.012 Y83.366
G1 F1800 X209.9 Y90.479 E271.95086
G0 F5400 X209.338 Y90.475
G1 F1800 X217.02 Y82.793 E273.99443
G0 F5400 X217.028 Y82.22
G1 F1800 X208.776 Y90.471 E276.18951
G0 F5400 X208.214 Y90.468
G1 F1800 X217.035 Y81.647 E278.53608
G0 F5400 X217.043 Y81.073
G1 F1800 X207.652 Y90.464 E281.03429
G0 F5400 X207.09 Y90.461
G1 F1800 X217.05 Y80.501 E283.68387
G0 F5400 X217.058 Y79.927
G1 F1800 X209.733 Y87.252 E285.63247
G0 F5400 X209.77 Y86.649
G1 F1800 X217.065 Y79.354 E287.5731
G0 F5400 X217.073 Y78.781
G1 F1800 X209.77 Y86.083 E289.51572
G0 F5400 X209.771 Y85.517
G1 F1800 X217.08 Y78.207 E291.4602
G0 F5400 X217.087 Y77.635
G1 F1800 X209.771 Y84.951 E293.40642
G0 F5400 X209.772 Y84.385
G1 F1800 X217.095 Y77.061 E295.35462
G0 F5400 X217.102 Y76.488
G1 F1800 X209.772 Y83.819 E297.3047
G0 F5400 X209.772 Y83.253
G1 F1800 X217.11 Y75.915 E299.25676
G0 F5400 X217.118 Y75.342
G1 F1800 X209.772 Y82.687 E301.21082
G0 F5400 X209.773 Y82.121
G1 F1800 X217.125 Y74.769 E303.16661
G0 F5400 X217.133 Y74.195
G1 F1800 X209.773 Y81.555 E305.12453
G0 F5400 X209.774 Y80.988
G1 F1800 X217.14 Y73.623 E307.08391
G0 F5400 X217.148 Y73.049
G1 F1800 X209.774 Y80.423 E309.04555
G0 F5400 X209.775 Y79.856
G1 F1800 X217.155 Y72.476 E311.00879
G0 F5400 X217.162 Y71.903
G1 F1800 X209.775 Y79.291 E312.97402
G0 F5400 X209.775 Y78.724
G1 F1800 X217.17 Y71.329 E314.94125
G0 F5400 X217.177 Y70.757
G1 F1800 X209.775 Y78.159 E316.91034
G0 F5400 X209.776 Y77.592
G1 F1800 X217.185 Y70.183 E318.8813
G0 F5400 X217.192 Y69.61
G1 F1800 X209.776 Y77.027 E320.85424
G0 F5400 X209.777 Y76.46
G1 F1800 X217.2 Y69.037 E322.82892
G0 F5400 X217.208 Y68.463
G1 F1800 X209.777 Y75.894 E324.80573
G0 F5400 X209.777 Y75.328
G1 F1800 X217.215 Y67.891 E326.78426
G0 F5400 X217.222 Y67.317
G1 F1800 X209.777 Y74.762 E328.76479
G0 F5400 X209.778 Y74.196
G1 F1800 X217.23 Y66.745 E330.74705
G0 F5400 X217.237 Y66.171
G1 F1800 X209.778 Y73.63 E332.7313
G0 F5400 X209.778 Y73.065
G1 F1800 X217.244 Y65.598 E334.71755
G0 F5400 X217.375 Y64.903
G1 F1800 X209.779 Y72.498 E336.73812
G0 F5400 X209.779 Y71.933
G1 F1800 X224.185 Y57.527 E340.57042
G0 F5400 X224.747 Y57.53
G1 F1800 X217.94 Y64.337 E342.38123
G0 F5400 X218.632 Y64.211
G1 F1800 X225.308 Y57.534 E344.15732
G0 F5400 X225.87 Y57.538
G1 F1800 X219.194 Y64.214 E345.93328
G0 F5400 X219.756 Y64.218
G1 F1800 X226.372 Y57.602 E347.69328
G0 F5400 X226.616 Y57.923
G1 F1800 X220.318 Y64.222 E349.36882
G0 F5400 X220.88 Y64.225
G1 F1800 X226.617 Y58.488 E350.89498
G0 F5400 X226.617 Y59.054
G1 F1800 X221.443 Y64.229 E352.27151
G0 F5400 X222.005 Y64.232
G1 F1800 X226.618 Y59.619 E353.49867
G0 F5400 X226.619 Y60.184
G1 F1800 X222.567 Y64.236 E354.57658
G0 F5400 X223.129 Y64.239
G1 F1800 X226.619 Y60.749 E355.505
G0 F5400 X226.619 Y61.315
G1 F1800 X223.691 Y64.243 E356.28391
G0 F5400 X224.253 Y64.246
G1 F1800 X226.62 Y61.88 E356.91345
G0 F5400 X226.621 Y62.445
G1 F1800 X224.815 Y64.25 E357.39375
G0 F5400 X225.378 Y64.253
G1 F1800 X226.621 Y63.01 E357.72442
G0 F5400 X226.622 Y63.575
G1 F1800 X225.94 Y64.257 E357.90584
G0 F5400 X226.502 Y64.26
G1 F1800 X226.622 Y64.14 E357.93777
G0 F5400 X223.623 Y57.523
G1 F1800 X209.779 Y71.366 E361.62043
G0 F5400 X209.779 Y70.8
G1 F1800 X223.06 Y57.52 E365.15333
G0 F5400 X222.498 Y57.516
G1 F1800 X209.78 Y70.234 E368.53659
G0 F5400 X209.78 Y69.668
G1 F1800 X221.936 Y57.513 E371.77022
G0 F5400 X221.374 Y57.509
G1 F1800 X209.781 Y69.102 E374.8542
G0 F5400 X209.781 Y68.536
G1 F1800 X220.812 Y57.505 E377.78868
G0 F5400 X220.229 Y57.522
G1 F1800 X209.782 Y67.97 E380.56794
G0 F5400 X209.782 Y67.404
G1 F1800 X219.634 Y57.551 E383.18892
G0 F5400 X219.028 Y57.592
G1 F1800 X209.782 Y66.838 E385.64855
G0 F5400 X209.782 Y66.272
G1 F1800 X218.353 Y57.701 E387.92862
G0 F5400 X217.665 Y57.824
G1 F1800 X209.783 Y65.706 E390.0254
G0 F5400 X209.783 Y65.14
G1 F1800 X216.871 Y58.052 E391.91096
G1 X216.899 Y58.024
G0 F5400 X215.99 Y58.367
G1 F1800 X209.784 Y64.574 E393.56203
G0 F5400 X209.784 Y64.008
G1 F1800 X214.959 Y58.833 E394.93869
G1 X214.987 Y58.805
G0 F5400 X214.03 Y59.196
G1 F1800 X209.784 Y63.442 E396.06821
G0 F5400 X209.784 Y62.876
G1 F1800 X213.468 Y59.193 E397.0481
G0 F5400 X212.906 Y59.189
G1 F1800 X209.738 Y62.357 E397.89086
G0 F5400 X209.566 Y61.963
G1 F1800 X212.343 Y59.186 E398.6296
G0 F5400 X211.781 Y59.182
G1 F1800 X209.289 Y61.674 E399.29253
G0 F5400 X208.908 Y61.49
G1 F1800 X211.218 Y59.179 E399.90717
G0 F5400 X210.656 Y59.176
G1 F1800 X208.384 Y61.448 E400.51157
G0 F5400 X207.823 Y61.443
G1 F1800 X210.094 Y59.172 E401.11571
G0 F5400 X209.532 Y59.169
G1 F1800 X207.261 Y61.439 E401.71971
G0 F5400 X206.699 Y61.436
G1 F1800 X208.97 Y59.165 E402.32384
G0 F5400 X208.408 Y59.162
G1 F1800 X206.138 Y61.431 E402.92758
G0 F5400 X205.576 Y61.427
G1 F1800 X207.845 Y59.159 E403.53105
G0 F5400 X207.283 Y59.155
G1 F1800 X205.015 Y61.423 E404.13438
G0 F5400 X204.453 Y61.419
G1 F1800 X206.721 Y59.152 E404.73759
G0 F5400 X206.158 Y59.148
G1 F1800 X203.891 Y61.415 E405.34066
G0 F5400 X203.33 Y61.411
G1 F1800 X205.596 Y59.145 E405.94346
G0 F5400 X205.033 Y59.142
G1 F1800 X202.768 Y61.407 E406.546
G0 F5400 X202.206 Y61.403
G1 F1800 X204.471 Y59.138 E407.14854
G0 F5400 X203.909 Y59.135
G1 F1800 X201.645 Y61.399 E407.75081
G0 F5400 X201.083 Y61.395
G1 F1800 X203.347 Y59.131 E408.35308
G0 F5400 X202.785 Y59.128
G1 F1800 X200.521 Y61.391 E408.95522
G0 F5400 X199.96 Y61.387
G1 F1800 X202.223 Y59.124 E409.55723
G0 F5400 X201.66 Y59.121
G1 F1800 X199.398 Y61.383 E410.15897
G0 F5400 X198.836 Y61.379
G1 F1800 X201.098 Y59.118 E410.76058
G0 F5400 X200.535 Y59.114
G1 F1800 X198.275 Y61.375 E411.36192
G0 F5400 X197.713 Y61.371
G1 F1800 X199.973 Y59.111 E411.96313
G0 F5400 X199.411 Y59.107
G1 F1800 X197.151 Y61.367 E412.56434
G0 F5400 X196.828 Y61.124
G1 F1800 X198.848 Y59.104 E413.1017
G0 F5400 X198.286 Y59.101
G1 F1800 X196.611 Y60.776 E413.54729
G0 F5400 X196.289 Y60.533
G1 F1800 X197.724 Y59.097 E413.92916
G0 F5400 X197.162 Y59.094
G1 F1800 X195.834 Y60.422 E414.28244
G0 F5400 X195.28 Y60.41
G1 F1800 X196.6 Y59.09 E414.63359
G0 F5400 X196.038 Y59.087
G1 F1800 X194.718 Y60.406 E414.9846
G0 F5400 X194.156 Y60.402
G1 F1800 X195.475 Y59.084 E415.33535
G0 F5400 X194.913 Y59.08
G1 F1800 X193.594 Y60.399 E415.68623
G0 F5400 X193.032 Y60.395
G1 F1800 X194.35 Y59.077 E416.03685
G0 F5400 X193.788 Y59.073
G1 F1800 X192.47 Y60.392 E416.3876
G0 F5400 X191.907 Y60.389
G1 F1800 X193.226 Y59.07 E416.73848
G0 F5400 X192.663 Y59.067
G1 F1800 X191.345 Y60.386 E417.08923
G0 F5400 X190.782 Y60.382
G1 F1800 X192.101 Y59.063 E417.44011
G0 F5400 X191.539 Y59.06
G1 F1800 X190.22 Y60.378 E417.79086
G0 F5400 X189.658 Y60.375
G1 F1800 X190.977 Y59.056 E418.14174
G0 F5400 X190.415 Y59.053
G1 F1800 X189.096 Y60.371 E418.49249
