; generated by Slic3r Prusa Edition 1.41.0+win64 on 2018-10-02 at 13:28:07

; 

; external perimeters extrusion width = 0.45mm
; perimeters extrusion width = 0.45mm
; infill extrusion width = 0.45mm
; solid infill extrusion width = 0.45mm
; top infill extrusion width = 0.40mm
; first layer extrusion width = 0.42mm

M201 X9000 Y9000 Z500 E10000 ; sets maximum accelerations, mm/sec^2
M203 X500 Y500 Z12 E120 ; sets maximum feedrates, mm/sec
M204 P2000 R1500 T2000 ; sets acceleration (P, T) and retract acceleration (R), mm/sec^2
M205 X10.00 Y10.00 Z0.20 E2.50 ; sets the jerk limits, mm/sec
M205 S0 T0 ; sets the minimum extruding and travel feed rate, mm/sec
M107
M115 U3.1.0 ; tell printer latest fw version
M83  ; extruder relative mode
M204 S2000 T1500 ; MK2 firmware only supports the old M204 format
M104 S215 ; set extruder temp
M140 S60 ; set bed temp
M190 S60 ; wait for bed temp
M109 S215 ; wait for extruder temp
G28 W ; home all without mesh bed level
G80 ; mesh bed leveling
G1 Y-3.0 F1000.0 ; go outside print area
G92 E0.0
G1 X60.0 E9.0  F1000.0 ; intro line
G1 X100.0 E12.5  F1000.0 ; intro line
G92 E0.0
M900 K30; Filament gcode
G21 ; set units to millimeters
G90 ; use absolute coordinates
M83 ; use relative distances for extrusion
;BEFORE_LAYER_CHANGE
G92 E0.0
;0.2


G1 E-0.80000 F2100.00000
G1 Z0.600 F10800.000
;AFTER_LAYER_CHANGE
;0.2
G1 X90.587 Y77.013
G1 Z0.200
G1 E0.80000 F2100.00000
M204 S1000
G1 F1800
G1 X91.948 Y75.412 E0.06589
G1 X93.501 Y73.764 E0.07100
G1 X95.137 Y72.197 E0.07101
G1 X96.847 Y70.718 E0.07089
G1 X98.633 Y69.326 E0.07100
G1 X100.466 Y68.041 E0.07020
G1 X103.415 Y66.246 E0.10825
G1 X105.397 Y65.206 E0.07017
G1 X107.473 Y64.249 E0.07169
G1 X110.428 Y63.102 E0.09937
G1 X112.417 Y62.462 E0.06553
G1 X116.479 Y61.466 E0.13114
G1 X120.639 Y60.855 E0.13183
G1 X124.827 Y60.640 E0.13148
G1 X128.988 Y60.819 E0.13057
G1 X133.156 Y61.396 E0.13194
G1 X137.223 Y62.357 E0.13103
G1 X139.218 Y62.980 E0.06553
G1 X142.185 Y64.104 E0.09948
G1 X144.266 Y65.042 E0.07158
G1 X146.258 Y66.065 E0.07020
G1 X149.221 Y67.836 E0.10824
G1 X151.065 Y69.105 E0.07017
G1 X152.863 Y70.482 E0.07100
G1 X154.588 Y71.948 E0.07100
G1 X156.236 Y73.501 E0.07101
G1 X157.803 Y75.137 E0.07101
G1 X159.282 Y76.847 E0.07089
G1 X160.674 Y78.633 E0.07100
G1 X161.959 Y80.466 E0.07020
G1 X163.754 Y83.415 E0.10825
G1 X164.794 Y85.397 E0.07017
G1 X165.751 Y87.473 E0.07169
G1 X166.898 Y90.428 E0.09938
G1 X167.538 Y92.417 E0.06553
G1 X168.534 Y96.479 E0.13114
G1 X169.145 Y100.639 E0.13183
G1 X169.360 Y104.813 E0.13102
G1 X169.181 Y108.988 E0.13104
G1 X168.605 Y113.153 E0.13182
G1 X167.643 Y117.223 E0.13115
G1 X167.020 Y119.218 E0.06553
G1 X165.896 Y122.185 E0.09947
G1 X164.958 Y124.266 E0.07158
G1 X163.935 Y126.258 E0.07020
G1 X162.164 Y129.221 E0.10824
G1 X160.895 Y131.065 E0.07017
G1 X159.518 Y132.863 E0.07101
G1 X158.052 Y134.588 E0.07099
G1 X156.499 Y136.236 E0.07101
G1 X154.863 Y137.803 E0.07101
G1 X153.153 Y139.282 E0.07088
G1 X151.367 Y140.674 E0.07100
G1 X149.534 Y141.959 E0.07020
G1 X146.585 Y143.754 E0.10824
G1 X144.603 Y144.794 E0.07017
G1 X142.530 Y145.750 E0.07157
G1 X139.572 Y146.898 E0.09949
G1 X137.583 Y147.538 E0.06553
G1 X133.521 Y148.534 E0.13113
G1 X129.361 Y149.145 E0.13184
G1 X125.187 Y149.360 E0.13104
G1 X121.012 Y149.181 E0.13102
G1 X116.847 Y148.605 E0.13182
G1 X112.777 Y147.643 E0.13115
G1 X110.782 Y147.020 E0.06553
G1 X107.815 Y145.896 E0.09948
G1 X105.734 Y144.958 E0.07158
G1 X103.742 Y143.935 E0.07020
G1 X100.779 Y142.164 E0.10825
G1 X98.935 Y140.895 E0.07017
G1 X97.137 Y139.518 E0.07100
G1 X95.412 Y138.051 E0.07100
G1 X93.764 Y136.499 E0.07100
G1 X92.200 Y134.866 E0.07090
G1 X90.718 Y133.153 E0.07100
G1 X89.326 Y131.367 E0.07100
G1 X88.041 Y129.533 E0.07020
G1 X86.245 Y126.585 E0.10824
G1 X85.206 Y124.603 E0.07017
G1 X84.250 Y122.530 E0.07157
G1 X83.102 Y119.572 E0.09949
G1 X82.462 Y117.583 E0.06553
G1 X81.466 Y113.521 E0.13114
G1 X80.855 Y109.361 E0.13184
G1 X80.640 Y105.187 E0.13102
G1 X80.819 Y101.012 E0.13103
G1 X81.396 Y96.844 E0.13194
G1 X82.357 Y92.777 E0.13103
G1 X82.980 Y90.782 E0.06553
G1 X84.104 Y87.815 E0.09948
G1 X85.042 Y85.734 E0.07157
G1 X86.065 Y83.742 E0.07020
G1 X87.836 Y80.779 E0.10824
G1 X89.105 Y78.935 E0.07017
G1 X90.548 Y77.059 E0.07422
; PURGING FINISHED
G1 F8640
G1 X91.948 Y75.412 E-0.49911
G1 X92.723 Y74.590 E-0.26089
G1 E-0.04000 F2100.00000
G1 Z0.800 F10800.000
G1 X92.993 Y79.084
G1 Z0.200
G1 E0.80000 F2100.00000
G1 F1800
G1 X93.623 Y78.323 E0.03096
G1 X94.314 Y77.531 E0.03296
G1 X95.025 Y76.757 E0.03296
G1 X95.756 Y76.001 E0.03296
G1 X96.505 Y75.264 E0.03296
G1 X97.274 Y74.546 E0.03296
G1 X98.060 Y73.849 E0.03296
G1 X98.864 Y73.171 E0.03297
G1 X99.685 Y72.514 E0.03296
G1 X100.522 Y71.879 E0.03297
G1 X101.376 Y71.265 E0.03296
G1 X102.244 Y70.673 E0.03296
G1 X103.128 Y70.103 E0.03296
G1 X104.026 Y69.556 E0.03296
G1 X104.937 Y69.032 E0.03296
G1 X105.862 Y68.532 E0.03297
G1 X106.799 Y68.055 E0.03296
G1 X107.748 Y67.603 E0.03296
G1 X108.708 Y67.175 E0.03296
G1 X109.676 Y66.772 E0.03286
G1 X111.497 Y66.092 E0.06094
G1 X113.344 Y65.499 E0.06084
G1 X115.218 Y64.994 E0.06084
G1 X117.113 Y64.578 E0.06084
G1 X119.026 Y64.251 E0.06084
G1 X120.952 Y64.015 E0.06084
G1 X122.887 Y63.870 E0.06084
G1 X124.827 Y63.816 E0.06084
G1 X126.632 Y63.851 E0.05662
G1 X128.704 Y63.982 E0.06509
G1 X130.631 Y64.202 E0.06082
G1 X132.546 Y64.513 E0.06084
G1 X134.445 Y64.913 E0.06084
G1 X136.322 Y65.402 E0.06084
G1 X138.175 Y65.980 E0.06084
G1 X140.001 Y66.645 E0.06094
G1 X140.973 Y67.039 E0.03286
G1 X141.936 Y67.459 E0.03296
G1 X142.889 Y67.903 E0.03296
G1 X143.830 Y68.372 E0.03296
G1 X144.759 Y68.865 E0.03297
G1 X145.675 Y69.381 E0.03296
G1 X146.577 Y69.920 E0.03296
G1 X147.466 Y70.482 E0.03296
G1 X148.339 Y71.067 E0.03296
G1 X149.198 Y71.674 E0.03296
G1 X150.040 Y72.302 E0.03296
G1 X150.867 Y72.952 E0.03296
G1 X151.677 Y73.623 E0.03296
G1 X152.469 Y74.314 E0.03296
G1 X153.243 Y75.025 E0.03296
G1 X153.999 Y75.756 E0.03296
G1 X154.736 Y76.505 E0.03296
G1 X155.454 Y77.274 E0.03296
G1 X156.151 Y78.060 E0.03296
G1 X156.829 Y78.864 E0.03297
G1 X157.486 Y79.685 E0.03296
G1 X158.121 Y80.522 E0.03296
G1 X158.735 Y81.376 E0.03296
G1 X159.327 Y82.244 E0.03296
G1 X159.897 Y83.128 E0.03296
G1 X160.444 Y84.026 E0.03296
G1 X160.967 Y84.937 E0.03296
G1 X161.468 Y85.862 E0.03296
G1 X161.944 Y86.799 E0.03296
G1 X162.397 Y87.748 E0.03296
G1 X162.825 Y88.708 E0.03296
G1 X163.228 Y89.676 E0.03286
G1 X163.908 Y91.497 E0.06094
G1 X164.501 Y93.344 E0.06084
G1 X165.006 Y95.218 E0.06084
G1 X165.422 Y97.113 E0.06084
G1 X165.749 Y99.026 E0.06084
G1 X165.985 Y100.952 E0.06084
G1 X166.130 Y102.887 E0.06084
G1 X166.184 Y104.827 E0.06084
G1 X166.147 Y106.767 E0.06084
G1 X166.018 Y108.703 E0.06084
G1 X165.798 Y110.631 E0.06084
G1 X165.487 Y112.546 E0.06084
G1 X165.087 Y114.445 E0.06084
G1 X164.597 Y116.322 E0.06084
G1 X164.020 Y118.175 E0.06084
G1 X163.355 Y120.001 E0.06094
G1 X162.961 Y120.973 E0.03286
G1 X162.541 Y121.936 E0.03296
G1 X162.097 Y122.889 E0.03296
G1 X161.628 Y123.830 E0.03296
G1 X161.135 Y124.759 E0.03296
G1 X160.619 Y125.675 E0.03296
G1 X160.080 Y126.577 E0.03296
G1 X159.518 Y127.466 E0.03296
G1 X158.933 Y128.339 E0.03296
G1 X158.326 Y129.198 E0.03296
G1 X157.698 Y130.041 E0.03296
G1 X157.048 Y130.867 E0.03297
G1 X156.377 Y131.677 E0.03296
G1 X155.686 Y132.469 E0.03296
G1 X154.975 Y133.243 E0.03296
G1 X154.244 Y133.999 E0.03296
G1 X153.495 Y134.736 E0.03296
G1 X152.726 Y135.454 E0.03296
G1 X151.940 Y136.151 E0.03297
G1 X151.136 Y136.829 E0.03296
G1 X150.315 Y137.486 E0.03297
G1 X149.478 Y138.121 E0.03296
G1 X148.624 Y138.735 E0.03296
G1 X147.756 Y139.327 E0.03296
G1 X146.872 Y139.897 E0.03296
G1 X145.974 Y140.444 E0.03296
G1 X145.063 Y140.968 E0.03296
G1 X144.138 Y141.468 E0.03296
G1 X143.201 Y141.945 E0.03296
G1 X142.252 Y142.397 E0.03297
G1 X141.292 Y142.825 E0.03296
G1 X140.324 Y143.228 E0.03286
G1 X138.503 Y143.908 E0.06094
G1 X136.656 Y144.501 E0.06084
G1 X134.782 Y145.006 E0.06084
G1 X132.887 Y145.422 E0.06084
G1 X130.974 Y145.749 E0.06084
G1 X129.048 Y145.985 E0.06084
G1 X127.109 Y146.130 E0.06096
G1 X125.173 Y146.184 E0.06072
G1 X123.233 Y146.147 E0.06084
G1 X121.297 Y146.018 E0.06084
G1 X119.369 Y145.798 E0.06084
G1 X117.454 Y145.487 E0.06084
G1 X115.555 Y145.087 E0.06084
G1 X113.678 Y144.598 E0.06084
G1 X111.825 Y144.020 E0.06084
G1 X109.999 Y143.355 E0.06094
G1 X109.027 Y142.961 E0.03286
G1 X108.064 Y142.541 E0.03297
G1 X107.111 Y142.097 E0.03296
G1 X106.170 Y141.628 E0.03297
G1 X105.241 Y141.135 E0.03296
G1 X104.325 Y140.619 E0.03296
G1 X103.423 Y140.080 E0.03296
G1 X102.534 Y139.518 E0.03296
G1 X101.661 Y138.933 E0.03296
G1 X100.802 Y138.326 E0.03296
G1 X99.959 Y137.698 E0.03296
G1 X99.133 Y137.048 E0.03296
G1 X98.323 Y136.377 E0.03297
G1 X97.531 Y135.686 E0.03296
G1 X96.757 Y134.975 E0.03296
G1 X96.001 Y134.244 E0.03296
G1 X95.264 Y133.495 E0.03296
G1 X94.546 Y132.726 E0.03296
G1 X93.849 Y131.940 E0.03297
G1 X93.171 Y131.136 E0.03296
G1 X92.514 Y130.315 E0.03296
G1 X91.879 Y129.478 E0.03297
G1 X91.265 Y128.624 E0.03296
G1 X90.673 Y127.756 E0.03296
G1 X90.103 Y126.872 E0.03296
G1 X89.556 Y125.974 E0.03296
G1 X89.032 Y125.063 E0.03296
G1 X88.532 Y124.138 E0.03296
G1 X88.055 Y123.201 E0.03296
G1 X87.603 Y122.252 E0.03296
G1 X87.175 Y121.292 E0.03296
G1 X86.772 Y120.324 E0.03286
G1 X86.092 Y118.503 E0.06094
G1 X85.499 Y116.656 E0.06084
G1 X84.994 Y114.782 E0.06084
G1 X84.578 Y112.887 E0.06084
G1 X84.251 Y110.974 E0.06084
G1 X84.015 Y109.048 E0.06084
G1 X83.870 Y107.113 E0.06084
G1 X83.816 Y105.173 E0.06084
G1 X83.853 Y103.233 E0.06084
G1 X83.982 Y101.297 E0.06084
G1 X84.202 Y99.369 E0.06084
G1 X84.513 Y97.454 E0.06084
G1 X84.913 Y95.555 E0.06084
G1 X85.402 Y93.678 E0.06084
G1 X85.980 Y91.825 E0.06084
G1 X86.645 Y89.999 E0.06094
G1 X87.039 Y89.027 E0.03286
G1 X87.459 Y88.064 E0.03296
G1 X87.903 Y87.111 E0.03296
G1 X88.372 Y86.170 E0.03296
G1 X88.865 Y85.241 E0.03296
G1 X89.381 Y84.325 E0.03296
G1 X89.920 Y83.423 E0.03296
G1 X90.482 Y82.534 E0.03296
G1 X91.067 Y81.661 E0.03296
G1 X91.674 Y80.802 E0.03296
G1 X92.302 Y79.959 E0.03296
G1 X92.955 Y79.130 E0.03308
G1 X92.659 Y78.896 F10800.000
G1 F1800
G1 X93.335 Y78.079 E0.03326
G1 X94.033 Y77.280 E0.03326
G1 X94.750 Y76.498 E0.03327
G1 X95.488 Y75.735 E0.03326
G1 X96.244 Y74.992 E0.03326
G1 X97.020 Y74.267 E0.03327
G1 X97.813 Y73.563 E0.03326
G1 X98.625 Y72.880 E0.03327
G1 X99.453 Y72.217 E0.03326
G1 X100.298 Y71.575 E0.03327
G1 X101.159 Y70.956 E0.03326
G1 X102.036 Y70.358 E0.03326
G1 X102.928 Y69.784 E0.03326
G1 X103.834 Y69.232 E0.03327
G1 X104.754 Y68.703 E0.03326
G1 X105.687 Y68.198 E0.03327
G1 X106.632 Y67.717 E0.03326
G1 X107.590 Y67.260 E0.03326
G1 X108.559 Y66.828 E0.03327
G1 X109.538 Y66.421 E0.03323
G1 X111.373 Y65.736 E0.06143
G1 X113.238 Y65.137 E0.06140
G1 X115.128 Y64.628 E0.06140
G1 X117.041 Y64.207 E0.06140
G1 X118.971 Y63.878 E0.06140
G1 X120.915 Y63.640 E0.06140
G1 X122.867 Y63.493 E0.06140
G1 X124.825 Y63.439 E0.06140
G1 X126.647 Y63.474 E0.05716
G1 X128.737 Y63.607 E0.06564
G1 X130.682 Y63.829 E0.06139
G1 X132.615 Y64.142 E0.06140
G1 X134.531 Y64.546 E0.06140
G1 X136.426 Y65.040 E0.06140
G1 X138.296 Y65.622 E0.06140
G1 X140.137 Y66.293 E0.06143
G1 X141.119 Y66.691 E0.03323
G1 X142.091 Y67.115 E0.03326
G1 X143.053 Y67.564 E0.03327
G1 X144.002 Y68.037 E0.03326
G1 X144.940 Y68.534 E0.03327
G1 X145.864 Y69.055 E0.03326
G1 X146.775 Y69.599 E0.03326
G1 X147.671 Y70.166 E0.03327
G1 X148.553 Y70.756 E0.03326
G1 X149.419 Y71.369 E0.03327
G1 X150.270 Y72.003 E0.03326
G1 X151.104 Y72.659 E0.03327
G1 X151.921 Y73.335 E0.03327
G1 X152.720 Y74.033 E0.03327
G1 X153.502 Y74.750 E0.03326
G1 X154.265 Y75.488 E0.03327
G1 X155.008 Y76.244 E0.03327
G1 X155.732 Y77.020 E0.03326
G1 X156.437 Y77.813 E0.03326
G1 X157.120 Y78.625 E0.03327
G1 X157.783 Y79.453 E0.03327
G1 X158.424 Y80.298 E0.03326
G1 X159.044 Y81.159 E0.03327
G1 X159.642 Y82.036 E0.03327
G1 X160.216 Y82.928 E0.03326
G1 X160.768 Y83.834 E0.03327
G1 X161.297 Y84.754 E0.03326
G1 X161.802 Y85.687 E0.03326
G1 X162.283 Y86.632 E0.03327
G1 X162.739 Y87.590 E0.03326
G1 X163.172 Y88.559 E0.03327
G1 X163.578 Y89.538 E0.03323
G1 X164.264 Y91.373 E0.06143
G1 X164.862 Y93.238 E0.06140
G1 X165.372 Y95.128 E0.06140
G1 X165.793 Y97.041 E0.06140
G1 X166.122 Y98.971 E0.06140
G1 X166.360 Y100.915 E0.06140
G1 X166.507 Y102.868 E0.06140
G1 X166.561 Y104.825 E0.06140
G1 X166.523 Y106.783 E0.06140
G1 X166.393 Y108.737 E0.06140
G1 X166.171 Y110.682 E0.06140
G1 X165.858 Y112.615 E0.06140
G1 X165.454 Y114.531 E0.06140
G1 X164.960 Y116.426 E0.06140
G1 X164.378 Y118.296 E0.06140
G1 X163.707 Y120.137 E0.06143
G1 X163.309 Y121.119 E0.03323
G1 X162.885 Y122.091 E0.03327
G1 X162.436 Y123.053 E0.03327
G1 X161.963 Y124.002 E0.03326
G1 X161.466 Y124.940 E0.03327
G1 X160.945 Y125.864 E0.03326
G1 X160.401 Y126.775 E0.03326
G1 X159.834 Y127.671 E0.03327
G1 X159.244 Y128.553 E0.03326
G1 X158.631 Y129.419 E0.03326
G1 X157.997 Y130.270 E0.03327
G1 X157.341 Y131.104 E0.03327
G1 X156.664 Y131.921 E0.03327
G1 X155.967 Y132.720 E0.03326
G1 X155.250 Y133.502 E0.03326
G1 X154.512 Y134.265 E0.03326
G1 X153.756 Y135.008 E0.03327
G1 X152.980 Y135.733 E0.03326
G1 X152.187 Y136.437 E0.03327
G1 X151.375 Y137.120 E0.03326
G1 X150.547 Y137.783 E0.03327
G1 X149.702 Y138.425 E0.03327
G1 X148.841 Y139.044 E0.03326
G1 X147.964 Y139.642 E0.03326
G1 X147.072 Y140.217 E0.03327
G1 X146.166 Y140.768 E0.03326
G1 X145.246 Y141.297 E0.03327
G1 X144.313 Y141.802 E0.03327
G1 X143.368 Y142.283 E0.03326
G1 X142.410 Y142.740 E0.03327
G1 X141.441 Y143.172 E0.03326
G1 X140.462 Y143.579 E0.03323
G1 X138.627 Y144.264 E0.06143
G1 X136.762 Y144.862 E0.06140
G1 X134.872 Y145.372 E0.06140
G1 X132.959 Y145.793 E0.06140
G1 X131.029 Y146.122 E0.06140
G1 X129.085 Y146.360 E0.06140
G1 X127.129 Y146.507 E0.06152
G1 X125.175 Y146.561 E0.06128
G1 X123.217 Y146.524 E0.06140
G1 X121.263 Y146.393 E0.06140
G1 X119.318 Y146.171 E0.06140
G1 X117.385 Y145.858 E0.06139
G1 X115.469 Y145.454 E0.06140
G1 X113.574 Y144.960 E0.06140
G1 X111.704 Y144.378 E0.06140
G1 X109.863 Y143.707 E0.06143
G1 X108.881 Y143.309 E0.03323
G1 X107.909 Y142.885 E0.03327
G1 X106.947 Y142.436 E0.03326
G1 X105.997 Y141.963 E0.03327
G1 X105.060 Y141.466 E0.03326
G1 X104.136 Y140.945 E0.03327
G1 X103.225 Y140.401 E0.03327
G1 X102.329 Y139.834 E0.03326
G1 X101.447 Y139.244 E0.03326
G1 X100.581 Y138.631 E0.03326
G1 X99.730 Y137.997 E0.03326
G1 X98.896 Y137.341 E0.03327
G1 X98.079 Y136.665 E0.03327
G1 X97.280 Y135.967 E0.03327
G1 X96.498 Y135.250 E0.03326
G1 X95.735 Y134.512 E0.03326
G1 X94.992 Y133.756 E0.03326
G1 X94.268 Y132.980 E0.03326
G1 X93.563 Y132.187 E0.03327
G1 X92.880 Y131.375 E0.03327
G1 X92.217 Y130.547 E0.03326
G1 X91.575 Y129.702 E0.03327
G1 X90.956 Y128.841 E0.03327
G1 X90.358 Y127.964 E0.03326
G1 X89.783 Y127.072 E0.03327
G1 X89.232 Y126.166 E0.03326
G1 X88.703 Y125.246 E0.03327
G1 X88.198 Y124.313 E0.03326
G1 X87.717 Y123.368 E0.03327
G1 X87.260 Y122.410 E0.03326
G1 X86.828 Y121.441 E0.03327
G1 X86.421 Y120.462 E0.03323
G1 X85.736 Y118.627 E0.06143
G1 X85.137 Y116.762 E0.06140
G1 X84.628 Y114.872 E0.06140
G1 X84.207 Y112.959 E0.06140
G1 X83.878 Y111.029 E0.06140
G1 X83.640 Y109.085 E0.06140
G1 X83.493 Y107.132 E0.06140
G1 X83.439 Y105.175 E0.06140
G1 X83.477 Y103.217 E0.06140
G1 X83.607 Y101.263 E0.06140
G1 X83.829 Y99.318 E0.06140
G1 X84.142 Y97.385 E0.06140
G1 X84.546 Y95.469 E0.06140
G1 X85.040 Y93.574 E0.06140
G1 X85.622 Y91.704 E0.06140
G1 X86.293 Y89.863 E0.06143
G1 X86.691 Y88.881 E0.03323
G1 X87.115 Y87.909 E0.03326
G1 X87.564 Y86.947 E0.03327
G1 X88.037 Y85.998 E0.03327
G1 X88.534 Y85.060 E0.03327
G1 X89.055 Y84.136 E0.03327
G1 X89.599 Y83.225 E0.03326
G1 X90.166 Y82.329 E0.03326
G1 X90.756 Y81.447 E0.03327
G1 X91.369 Y80.581 E0.03326
G1 X92.003 Y79.730 E0.03327
G1 X92.622 Y78.943 E0.03138
G1 X93.054 Y78.958 F10800.000
G1 F8640
G1 X93.335 Y78.079 E-0.25882
G1 X94.033 Y77.280 E-0.24496
G1 X94.750 Y76.498 E-0.24499
G1 X94.784 Y76.463 E-0.01122
G1 E-0.04000 F2100.00000
G1 Z0.800 F10800.000
G1 X87.824 Y122.453
G1 Z0.200
G1 E0.80000 F2100.00000
G1 F1800
G1 X107.192 Y141.821 E0.86254
